X:147
M:6/8
L:1/8
Q:3/8=110
K:C
ced ced|c2 G G2 F|EGc GcB|c3c2:|
|:g|g2 e ceg|a2 f def|g2 c B2 c|dBG G2 g|\
g2 e ceg|a2 f def|gec GcB|c3c2:|

